!!!SOCIAL_FUNCTION:	bird dance songs
!!!PDT:	1956
!!!OTL: No_156_Switchgrass_Dance_Song_(f).krn
!!!LANG: Non-Tone
!!!LING_GROUP: Muskogean
!!!REG: Florida
**kern
*staff1
=1-
*clefF4
*k[b-e-a-]
*M2/4
4.r
16B-\LL
16B-\JJ
=2!|:
2B-\
=3
8G\L
16B-\L
16B-\JJ
4B-\
=4
8B-\L
8A-\J
8G\L
16E-\L
16E-\JJ
=5
4E-\
4r
=6||
*M3/4
4.E-\
16C/LL
16C/JJ
8.E-/L
16BB-/Jk
=7||
*M2/4
4E-\
4r
=8||
*M3/4
4.E-\
16C/LL
16C/JJ
8.E-/L
16C/Jk
=9
4BB-/
4r
8B-\L
8B-\J
=10:|!
4BB-/
2r
==
*-
